src/assets/outline/Trade.svg

<?xml version="1.0" encoding="UTF-8"?>
<svg width="24" height="24" viewBox="0 0 24 24" xmlns="http://www.w3.org/2000/svg">
 <path d="m15.5 15.75c-0.18 0-0.38-0.01-0.57-0.02-0.37-0.02-0.67-0.32-0.7-0.69-0.22-2.79-2.49-5.05-5.27-5.27-0.37-0.03-0.67-0.32998-0.69-0.69998-0.01-0.19-0.01999-0.38001-0.01999-0.57001 0-4 3.25-7.25 7.25-7.25s7.25 3.25 7.25 7.25-3.25 7.25-7.25 7.25zm-5.75-7.39c2.98 0.52 5.37 2.91 5.89 5.89 3.11-0.08 5.61-2.62 5.61-5.75 0-3.17-2.58-5.75-5.75-5.75-3.12 0-5.67 2.5-5.75 5.61z"/>
 <path d="m8.5 22.75c-4 0-7.25-3.25-7.25-7.25s3.25-7.25 7.25-7.25c0.18 0 0.38001 0.00999 0.57001 0.01999 3.53 0.28 6.39 3.14 6.66 6.65 0.01 0.2 0.02 0.39 0.02 0.58 0 4-3.25 7.25-7.25 7.25zm0-13c-3.17 0-5.75 2.58-5.75 5.75s2.58 5.75 5.75 5.75 5.75-2.58 5.75-5.75c0-0.16-0.01-0.32-0.02-0.47-0.22-2.77-2.48-5.04-5.27-5.26-0.14-0.01-0.29999-0.01999-0.45999-0.01999z"/>
 <path d="m3 7.34c-0.23 0-0.45001-0.04001-0.67001-0.13001-0.66-0.27-1.08-0.90999-1.08-1.62v-2.59c0-0.96 0.79-1.75 1.75-1.75h2.59c0.71 0 1.34 0.41999 1.62 1.08 0.27 0.66 0.12 1.41-0.38 1.91l-2.59 2.59c-0.34 0.33-0.77999 0.51001-1.24 0.51001zm0-4.59c-0.14 0-0.25 0.11-0.25 0.25v2.59c0 0.15 0.09999 0.21001 0.14999 0.23001 0.06 0.02 0.17002 0.04998 0.27002-0.05002l2.59-2.59c0.1-0.1 0.07999-0.20999 0.04999-0.26999s-0.09001-0.14999-0.23001-0.14999h-2.58v-0.01001z"/>
 <path d="m21 22.75h-2.59c-0.71 0-1.34-0.42-1.62-1.08-0.27-0.66-0.12-1.41 0.38-1.91l2.59-2.59c0.5-0.5 1.25-0.65 1.91-0.38s1.08 0.91 1.08 1.62v2.59c0 0.96-0.79 1.75-1.75 1.75zm-0.01-4.59c-0.05 0-0.11 0.02-0.17 0.08l-2.59 2.59c-0.1 0.1-0.08 0.21-0.05 0.27s0.09 0.15 0.23 0.15h2.59c0.14 0 0.25-0.11 0.25-0.25v-2.59c0-0.15-0.1-0.21-0.15-0.23-0.03-0.01-0.07-0.02-0.11-0.02z"/>
</svg>

<svg width="24" height="24" viewBox="0 0 24 24"  xmlns="http://www.w3.org/2000/svg">
<path d="M15.5 15.75C15.32 15.75 15.12 15.74 14.93 15.73C14.56 15.71 14.26 15.41 14.23 15.04C14.01 12.25 11.74 9.98999 8.95999 9.76999C8.58999 9.73999 8.28999 9.44001 8.26999 9.07001C8.25999 8.88001 8.25 8.69 8.25 8.5C8.25 4.5 11.5 1.25 15.5 1.25C19.5 1.25 22.75 4.5 22.75 8.5C22.75 12.5 19.5 15.75 15.5 15.75ZM9.75 8.35999C12.73 8.87999 15.12 11.27 15.64 14.25C18.75 14.17 21.25 11.63 21.25 8.5C21.25 5.33 18.67 2.75 15.5 2.75C12.38 2.75 9.83 5.24999 9.75 8.35999Z" />
<path d="M8.5 22.75C4.5 22.75 1.25 19.5 1.25 15.5C1.25 11.5 4.5 8.25 8.5 8.25C8.68 8.25 8.88001 8.25999 9.07001 8.26999C12.6 8.54999 15.46 11.41 15.73 14.92C15.74 15.12 15.75 15.31 15.75 15.5C15.75 19.5 12.5 22.75 8.5 22.75ZM8.5 9.75C5.33 9.75 2.75 12.33 2.75 15.5C2.75 18.67 5.33 21.25 8.5 21.25C11.67 21.25 14.25 18.67 14.25 15.5C14.25 15.34 14.24 15.18 14.23 15.03C14.01 12.26 11.75 9.98999 8.95999 9.76999C8.81999 9.75999 8.66 9.75 8.5 9.75Z" />
<path d="M3 7.34C2.77 7.34 2.54999 7.29999 2.32999 7.20999C1.66999 6.93999 1.25 6.3 1.25 5.59V3C1.25 2.04 2.04 1.25 3 1.25H5.59C6.3 1.25 6.92999 1.66999 7.20999 2.32999C7.47999 2.98999 7.32999 3.73999 6.82999 4.23999L4.23999 6.82999C3.89999 7.15999 3.46 7.34 3 7.34ZM3 2.75C2.86 2.75 2.75 2.86 2.75 3V5.59C2.75 5.74 2.84999 5.80001 2.89999 5.82001C2.95999 5.84001 3.07001 5.86999 3.17001 5.76999L5.76001 3.17999C5.86001 3.07999 5.84 2.97 5.81 2.91C5.78 2.85 5.71999 2.76001 5.57999 2.76001H3V2.75Z" />
<path d="M20.9998 22.7498H18.4098C17.6998 22.7498 17.0698 22.3298 16.7898 21.6698C16.5198 21.0098 16.6698 20.2598 17.1698 19.7598L19.7598 17.1698C20.2598 16.6698 21.0098 16.5198 21.6698 16.7898C22.3298 17.0598 22.7498 17.6998 22.7498 18.4098V20.9998C22.7498 21.9598 21.9598 22.7498 20.9998 22.7498ZM20.9898 18.1598C20.9398 18.1598 20.8798 18.1798 20.8198 18.2398L18.2298 20.8298C18.1298 20.9298 18.1498 21.0398 18.1798 21.0998C18.2098 21.1598 18.2698 21.2498 18.4098 21.2498H20.9998C21.1398 21.2498 21.2498 21.1398 21.2498 20.9998V18.4098C21.2498 18.2598 21.1498 18.1998 21.0998 18.1798C21.0698 18.1698 21.0298 18.1598 20.9898 18.1598Z" />
</svg>
